!!!COM: Palestrina, Giovanni Perluigi da
!!!OPR: Missa Ascendo ad Patrem
!!!OMD: Benedictus
!!!OTL: B.Hosanna
**kern	**kern	**kern	**kern	**kern
*Ibass	*Itenor	*Itenor	*Icalto	*Icant
!Bassus	!Tenor 2	!Tenor 1	!Altus	!Cantus
*clefF4	*clefGv2	*clefGv2	*clefG2	*clefG2
*k[]	*k[]	*k[]	*k[]	*k[]
*C:ion	*C:ion	*C:ion	*C:ion	*C:ion
*M3/2	*M3/2	*M3/2	*M3/2	*M3/2
=34	=34	=34	=34	=34
1G	1B	1d	1r	1r
2A	2c	2f	2r	2r
=35	=35	=35	=35	=35
2.G	2B	2e	1g	1r
.	2B	2.d	.	.
4G	.	.	.	.
2F	2A	.	2a	2r
.	.	4c	.	.
=36	=36	=36	=36	=36
2.E	2e	2.c	2.g	1r
.	2e	.	.	.
8D	.	8B	4g	.
8C	.	8A	.	.
2D	2r	2B	2f	2r
=37	=37	=37	=37	=37
1C	1g	2c	2e	1ee
.	.	2c	2e	.
2r	2a	2F	2cc	2ff
=38	=38	=38	=38	=38
1r	2.g	2c	2cc	2ee
.	.	2G	2.b-	2dd
.	4g	.	.	.
2r	2f	2B-	.	2dd
.	.	.	4a	.
=39	=39	=39	=39	=39
1r	2.e	2c	4g	2.cc
.	.	.	4f	.
.	.	1G	1g	.
.	8d	.	.	8b
.	8c	.	.	8a
2r	2d	.	.	2b
=40	=40	=40	=40	=40
2r	2c	2r	2e	1.cc
2c	2e	2g	2r	.
2F	2f	2a	2r	.
=41	=41	=41	=41	=41
2c	2e	2g	2r	2r
2r	2g	2r	2b	2dd
2r	2c	2r	2cc	2ee
=42	=42	=42	=42	=42
2r	2g	2r	1b	1dd
2G	2d	2B	.	.
2C	2e	2c	2r	2r
=43	=43	=43	=43	=43
2G	2d	2B	1b	1dd
2r	2r	2g	.	.
2r	2r	2c	2cc	2ee
=44	=44	=44	=44	=44
1r	1r	2g	2.b	2.dd
.	.	2G	.	.
.	.	.	4b	4dd
2r	2r	2A	2a	2cc
=45	=45	=45	=45	=45
1r	1r	2B	2.g	2.b
.	.	1d	.	.
.	.	.	8f#	8a
.	.	.	8e	8g
2r	2r	.	2f#	2a
=46	=46	=46	=46	=46
1G	2r	2r	2g	2g
.	2g	2d	2r	2b
2C	2g	2e	2r	2cc
=47	=47	=47	=47	=47
2G	2g	2.d	1r	2b
2D	2f	.	.	1a
.	.	4d	.	.
2F	2a	2c	2r	.
=48	=48	=48	=48	=48
2G	2.g	2.B	1r	2dd
1D	.	.	.	1dd
.	8f#	8A	.	.
.	8e	8G	.	.
.	2f#	2A	2r	.
=49	=49	=49	=49	=49
2r	2g	2G	2r	2b
2C	2g	2c	2e	2ee
2F	2a	2A	2c	2ff
=50	=50	=50	=50	=50
1C	2.g	2.c	2.e	2.ee
.	4g	4c	4e	4ee
2D	2f	2A	2f	2dd
=51	=51	=51	=51	=51
2E	2.e	1.G	1.g	2.cc
1G	.	.	.	.
.	8d	.	.	8b
.	8c	.	.	8a
.	2d	.	.	2b
=52	=52	=52	=52	=52
1.C	1.c	1.G	1.g	1.cc
==	==	==	==	==
*-	*-	*-	*-	*-
!!!CDT: 1525/^1526/-1594/2/2
!!!OCY: Italia
!!!AGN: Mass (Parody)
!!!AST: renaissance, vocal
!!!ASW: Motet 1572 (Palestrina)
!!!PWK: Masses, Book 12
!!!RNB: Cadence finals: G,D
!!!YOR: Le Opere Complete, v. 29, p. 54
!!!YOO: Rome, Italy: Fratelli Scalera
!!!END: 1992//
!!!EED: John Miller
!!!YEC: Copyright 2000, John Miller
!!!YEN: United States of America
!!!YEM: Rights to all derivative electronic formats reserved.
!!!YEM: Refer to licensing agreement for further details.
!!!YEM: This file must be accompanied by the licensing agreement.
!!!YEM: A copy of the licensing agreement may be found at http://www.music-cog.ohio-state.edu/HumdrumDatabases/Palestrina/license.txt
!!!EMD: converted to Humdrum by Bret Aarden
